X:1
T:Different Therefore Equal
M:4/4
L:1/4
K:C
 E3/2 E/2| D C z2| z2 E/2D/2 C/2C/2| E G z2| z2 c3/2 c/2| A G z2| z2 E/2D/2 C/2C/2|\
 D C z2| z2 E D| C z z2| z2E/2-D/2 C| G z z2| z c c c|
M:6/4
 A2 G2 E/2D/2 C/2C/2|
M:4/4
 A, C z2|
